X: 20162
T: Joao De Deus
R: waltz
M: 3/4
K: Eminor
Bef|:gBg BgB|gba gfe|fAf AfA|fag fed|
eGe GeG|egf efg|f2f e^de|fB^c ^def|
gBg BgB|gba gfe|fAf AfA|fag fed|
eGe Geg|f2f e^df|e2 e ^def|efg abc'|
|:bB B/B/B bB|bc'd' c'bc'|ad d/d/d ad|abc' baf|
[1gB B/B/B bc'|bag efg|f2f e^de|fga bc'd':|
[2geB egef^dB ^cgf|e2e ^def|e3 d2c||
|:BDG ABc|dgd cBc|AFD EFG|Adc BAB|GEB, EGE|
[1GBA GFE|F2F E^DE|FGA Bcd:|2 F^DB, ^CGF|E2E^ DEF|E3||

